packages/tokens/icons/briefcase/size32Px.svg

<svg viewBox="0 0 32 32" fill="none" xmlns="http://www.w3.org/2000/svg" width="1em" height="1em"><path d="M29.5 11V25C29.5 25.8284 28.8284 26.5 28 26.5H4C3.17157 26.5 2.5 25.8284 2.5 25V11C2.5 10.1716 3.17157 9.5 4 9.5H28C28.8284 9.5 29.5 10.1716 29.5 11Z" stroke="currentColor" stroke-linecap="round"/><path d="M20.5 9.5V7.5C20.5 6.39543 19.6046 5.5 18.5 5.5H13.5C12.3954 5.5 11.5 6.39543 11.5 7.5L11.5 9.5" stroke="currentColor" stroke-linecap="round"/><path d="M2.5 14.5H13.5" stroke="currentColor" stroke-linecap="round"/><path d="M18.5 14.5H29.5" stroke="currentColor" stroke-linecap="round"/><rect x="13.5" y="13.5" width="5" height="2" rx="1" stroke="currentColor" stroke-linecap="round"/></svg>

<svg xmlns="http://www.w3.org/2000/svg" fill="none" viewBox="0 0 32 32" width="1em" height="1em"><path stroke="currentColor" stroke-linecap="round" d="M29.5 11v14a1.5 1.5 0 0 1-1.5 1.5H4A1.5 1.5 0 0 1 2.5 25V11A1.5 1.5 0 0 1 4 9.5h24a1.5 1.5 0 0 1 1.5 1.5Zm-9-1.5v-2a2 2 0 0 0-2-2h-5a2 2 0 0 0-2 2v2m-9 5h11m5 0h11"/><rect width="5" height="2" x="13.5" y="13.5" stroke="currentColor" stroke-linecap="round" rx="1"/></svg>
